svg/fluentui-system-icons/ic_fluent_data_usage_20_regular.svg

<svg width="20" height="20" viewBox="0 0 20 20" fill="none" xmlns="http://www.w3.org/2000/svg">
<path d="M10 10C9.72386 10 9.5 10.2239 9.5 10.5V13.5C9.5 13.7761 9.72386 14 10 14C10.2761 14 10.5 13.7761 10.5 13.5V10.5C10.5 10.2239 10.2761 10 10 10ZM6 8.5C6 8.22386 6.22386 8 6.5 8C6.77614 8 7 8.22386 7 8.5V13.5C7 13.7761 6.77614 14 6.5 14C6.22386 14 6 13.7761 6 13.5V8.5ZM13.5 6C13.2239 6 13 6.22386 13 6.5V13.5C13 13.7761 13.2239 14 13.5 14C13.7761 14 14 13.7761 14 13.5V6.5C14 6.22386 13.7761 6 13.5 6ZM3 5C3 3.89543 3.89543 3 5 3H15C16.1046 3 17 3.89543 17 5V15C17 16.1046 16.1046 17 15 17H5C3.89543 17 3 16.1046 3 15V5ZM4 5V15C4 15.5523 4.44772 16 5 16H15C15.5523 16 16 15.5523 16 15V5C16 4.44772 15.5523 4 15 4H5C4.44772 4 4 4.44772 4 5Z" fill="#212121"/>
</svg>

<svg xmlns="http://www.w3.org/2000/svg" width="20" height="20"><path d="M10 10a.5.5 0 0 0-.5.5v3a.5.5 0 0 0 1 0v-3a.5.5 0 0 0-.5-.5ZM6 8.5a.5.5 0 0 1 1 0v5a.5.5 0 0 1-1 0v-5ZM13.5 6a.5.5 0 0 0-.5.5v7a.5.5 0 0 0 1 0v-7a.5.5 0 0 0-.5-.5ZM3 5a2 2 0 0 1 2-2h10a2 2 0 0 1 2 2v10a2 2 0 0 1-2 2H5a2 2 0 0 1-2-2V5Zm1 0v10a1 1 0 0 0 1 1h10a1 1 0 0 0 1-1V5a1 1 0 0 0-1-1H5a1 1 0 0 0-1 1Z"/></svg>
